kora-light/actions/scalable/view-continuous.svg

<svg xmlns="http://www.w3.org/2000/svg" style="fill-rule:evenodd;clip-rule:evenodd;stroke-linejoin:round;stroke-miterlimit:2" width="100%" height="100%" version="1.1" viewBox="0 0 16 16" xml:space="preserve">
 <defs>
  <style id="current-color-scheme" type="text/css">
   .ColorScheme-Text { color:#444444; } .ColorScheme-Highlight { color:#4285f4; } .ColorScheme-NeutralText { color:#ff9800; } .ColorScheme-PositiveText { color:#4caf50; } .ColorScheme-NegativeText { color:#f44336; }
  </style>
 </defs>
 <rect style="fill:currentColor;" class="ColorScheme-Text" width="12" height="2" x="2" y="7"/>
 <path style="fill:currentColor;fill-opacity:0.3" class="ColorScheme-Text" d="M6,13l0,1l4,0l0,-1l-4,0Zm-2,-3l0,2l8,0l0,-2l-8,0Zm0,-6l0,2l8,0l0,-2l-8,0Zm2,-2l0,1l4,0l0,-1l-4,0Z"/>
</svg>

<svg xmlns="http://www.w3.org/2000/svg" width="16" height="16" version="1.1">
 <defs>
  <style id="current-color-scheme" type="text/css">
   .ColorScheme-Text { color:#444444; } .ColorScheme-Highlight { color:#4285f4; }
  </style>
 </defs>
 <path style="fill:currentColor" class="ColorScheme-Text" d="M 6,2 V 3 H 10 V 2 Z M 4,4 V 6 H 12 V 4 Z M 2,7 V 9 H 14 V 7 Z M 4,10 V 12 H 12 V 10 Z M 6,13 V 14 H 10 V 13 Z"/>
</svg>
